public/ember-cli-visualeditor/styles/themes/apex/images/icons/picture.svg

<?xml version="1.0" encoding="utf-8"?>
<svg xmlns="http://www.w3.org/2000/svg" width="24" height="24" viewBox="0 0 24 24">
    <g id="picture">
        <path id="frame" d="M18 4h-12c-2-.007-3 .993-3 2.993l.014 9.007c-.014 2 .986 2.988 2.986 3h12c2-.012 2.994-1 3-3.006v-9.001c-.006-2-1-3-3-2.993zm1 13h-14v-11h14v11z"/>
        <path id="mountains" d="M6 13.5l3.5-3.5 2.328 2.312-1.312 1.094.875 1.032 4.109-3.438 2.5 2v3h-12z"/>
        <path id="sky" d="M6 12l3.516-4.156 3.046 3.172 2.938-2.016 2.5 2v-4h-12z"/>
    </g>
</svg>

<?xml version="1.0" encoding="utf-8"?>
<svg xmlns="http://www.w3.org/2000/svg" width="24" height="24" viewBox="0 0 24 24">
    <g id="picture">
        <path id="frame" d="M18 4H6c-2-.007-3 .993-3 2.993L3.014 16C3 18 4 18.988 6 19h12c2-.012 2.994-1 3-3.006v-9c-.006-2-1-3-3-2.994zm1 13H5V6h14v11z"/>
        <path id="mountains" d="M6 13.5L9.5 10l2.328 2.312-1.312 1.094.875 1.032L15.5 11l2.5 2v3H6z"/>
        <path id="sky" d="M6 12l3.516-4.156 3.046 3.172L15.5 9l2.5 2V7H6z"/>
    </g>
</svg>
